src/icons/svg/CircleXFilled.svg

<svg width="24" height="24" viewBox="0 0 24 24" fill="none" xmlns="http://www.w3.org/2000/svg">
<path d="M12 1.92C6.43198 1.92 1.91998 6.434 1.91998 12C1.91998 17.568 6.43298 22.08 12 22.08C17.567 22.08 22.08 17.566 22.08 12C22.08 6.434 17.566 1.92 12 1.92V1.92ZM14.074 12L17.747 15.674L15.672 17.749L11.998 14.075L8.32498 17.749L6.25098 15.675L9.92298 12.002L6.25098 8.33L8.32498 6.255L11.998 9.927L15.672 6.255L17.747 8.329L14.073 12.002L14.074 12Z" fill="#1C2125"/>
</svg>

<!-- Generated by IcoMoon.io -->
<svg version="1.1" xmlns="http://www.w3.org/2000/svg" width="24" height="24" viewBox="0 0 24 24">
<title>circle-x-filled</title>
<path fill="#444" d="M12 1.92c-5.568 0-10.080 4.514-10.080 10.080 0 5.568 4.513 10.080 10.080 10.080s10.080-4.514 10.080-10.080c0-5.566-4.514-10.080-10.080-10.080zM14.074 12l3.673 3.674-2.075 2.075-3.674-3.674-3.673 3.674-2.074-2.074 3.672-3.673-3.672-3.672 2.074-2.075 3.673 3.672 3.674-3.672 2.075 2.074-3.674 3.673z"></path>
</svg>
